www/static/img/overview/button.svg

<svg width="108" height="44" viewBox="0 0 108 44" fill="none" xmlns="http://www.w3.org/2000/svg">
<rect width="108" height="44" rx="4" fill="#005A7A"/>
<path d="M61.5994 14.2001C61.1604 13.8681 60.5324 13.9591 60.2014 14.4001L51.8204 25.5751L47.6244 22.2191C47.1944 21.8741 46.5654 21.9451 46.2184 22.3751C45.8734 22.8061 45.9454 23.4361 46.3744 23.7811L52.1804 28.4251L61.7994 15.6001C62.1314 15.1581 62.0414 14.5311 61.5994 14.2001Z" fill="white"/>
</svg>

<svg fill="none" height="44" viewBox="0 0 108 44" width="108" xmlns="http://www.w3.org/2000/svg"><rect fill="#005a7a" height="44" rx="4" width="108"/><path d="m61.5994 14.2001c-.439-.332-1.067-.241-1.398.2l-8.381 11.175-4.196-3.356c-.43-.345-1.059-.274-1.406.156-.345.431-.273 1.061.156 1.406l5.806 4.644 9.619-12.825c.332-.442.242-1.069-.2-1.4z" fill="#fff"/></svg>
